src/WeatherTwentyOne/Resources/Images/fluent_weather_moon_off_16_filled.svg

<svg width="41" height="40" viewBox="0 0 41 40" fill="none" xmlns="http://www.w3.org/2000/svg">
<path d="M29.6094 30.8075L36.0584 37.1325C36.2974 37.3672 36.6216 37.4992 36.9598 37.4994C37.1273 37.4996 37.2931 37.4673 37.4479 37.4046C37.6027 37.3418 37.7433 37.2498 37.8618 37.1337C37.9803 37.0177 38.0743 36.8799 38.1385 36.7282C38.2027 36.5765 38.2358 36.4139 38.236 36.2496C38.2361 36.0854 38.2032 35.9227 38.1392 35.7709C38.0753 35.6192 37.9814 35.4812 37.8631 35.365L4.72584 2.86499C4.60734 2.74877 4.46666 2.65658 4.31183 2.59368C4.15701 2.53079 3.99107 2.49841 3.82348 2.49841C3.6559 2.49841 3.48996 2.53079 3.33513 2.59368C3.18031 2.65658 3.03963 2.74877 2.92113 2.86499C2.80263 2.98121 2.70863 3.11919 2.6445 3.27103C2.58037 3.42288 2.54736 3.58563 2.54736 3.74999C2.54736 3.91435 2.58037 4.0771 2.6445 4.22895C2.70863 4.3808 2.80263 4.51877 2.92113 4.63499L16.2627 17.7175C14.0705 22.5425 9.25799 24.1825 6.14309 24.7375C5.94984 24.7721 5.76737 24.8501 5.60994 24.9654C5.4525 25.0806 5.32436 25.23 5.23551 25.4018C5.14667 25.5737 5.09954 25.7633 5.09779 25.956C5.09604 26.1487 5.13973 26.3391 5.22544 26.5125C6.27499 28.6485 7.82587 30.51 9.75086 31.9443C11.6759 33.3787 13.9201 34.3451 16.2996 34.7642C18.6791 35.1834 21.126 35.0433 23.4396 34.3555C25.7532 33.6677 27.8676 32.4518 29.6094 30.8075Z" fill="url(#paint0_linear)"/>
<path d="M34.2997 19.9999C34.2997 22.4249 33.7134 24.7149 32.6734 26.7399L17.6291 11.9874C17.7407 10.1461 17.6165 8.29841 17.2595 6.48742C17.226 6.31046 17.2318 6.1285 17.2766 5.95396C17.3214 5.77943 17.4042 5.61644 17.5191 5.47616C17.6341 5.33587 17.7786 5.22158 17.9427 5.14112C18.1069 5.06065 18.2868 5.0159 18.4702 5.00992C20.5224 4.93943 22.5681 5.27498 24.4852 5.99655C26.4023 6.71812 28.1516 7.81093 29.6289 9.20983C31.1061 10.6087 32.281 12.2851 33.0834 14.1389C33.8859 15.9927 34.2995 17.986 34.2997 19.9999V19.9999Z" fill="url(#paint1_linear)"/>
<defs>
<linearGradient id="paint0_linear" x1="8.64169" y1="8.82639" x2="28.8754" y2="28.1664" gradientUnits="userSpaceOnUse">
<stop offset="0.10243" stop-color="#28C2D1"/>
<stop offset="0.925347" stop-color="#4931DE"/>
</linearGradient>
<linearGradient id="paint1_linear" x1="20.1515" y1="8.93105" x2="32.1615" y2="17.767" gradientUnits="userSpaceOnUse">
<stop offset="0.10243" stop-color="#28C2D1"/>
<stop offset="0.925347" stop-color="#4931DE"/>
</linearGradient>
</defs>
</svg>

<svg width="41" height="40" fill="none" xmlns="http://www.w3.org/2000/svg">
    <path
        d="M29.61 30.808l6.448 6.325a1.288 1.288 0 001.39.272 1.277 1.277 0 00.69-.677 1.231 1.231 0 00-.275-1.363L4.726 2.865a1.278 1.278 0 00-.903-.367 1.298 1.298 0 00-.902.367 1.25 1.25 0 00-.374.885 1.23 1.23 0 00.374.885l13.342 13.083c-2.193 4.825-7.005 6.465-10.12 7.02a1.286 1.286 0 00-.533.227 1.23 1.23 0 00-.385 1.547 15.063 15.063 0 004.526 5.432 15.444 15.444 0 006.549 2.82c2.38.42 4.826.28 7.14-.409a15.363 15.363 0 006.17-3.547z"
        fill="url(#prefix__paint0_linear)" />
    <path
        d="M34.3 20c0 2.425-.587 4.715-1.627 6.74L17.63 11.987a21.658 21.658 0 00-.37-5.5 1.227 1.227 0 01.26-1.01 1.27 1.27 0 01.951-.467c2.052-.07 4.098.265 6.015.987A15.336 15.336 0 0129.63 9.21a14.994 14.994 0 013.454 4.929 14.753 14.753 0 011.217 5.86z"
        fill="url(#prefix__paint1_linear)" />
    <defs>
        <linearGradient id="prefix__paint0_linear" x1="8.642" y1="8.826" x2="28.875" y2="28.166"
            gradientUnits="userSpaceOnUse">
            <stop offset=".102" stop-color="#28C2D1" />
            <stop offset=".925" stop-color="#4931DE" />
        </linearGradient>
        <linearGradient id="prefix__paint1_linear" x1="20.151" y1="8.931" x2="32.161" y2="17.767"
            gradientUnits="userSpaceOnUse">
            <stop offset=".102" stop-color="#28C2D1" />
            <stop offset=".925" stop-color="#4931DE" />
        </linearGradient>
    </defs>
</svg>
